<?xml version="1.0" encoding="UTF-8"?>
<map version="1.10" tiledversion="1.12.2" orientation="orthogonal" renderorder="right-down" width="60" height="34" tilewidth="16" tileheight="16" infinite="1" nextlayerid="3" nextobjectid="1">
 <editorsettings>
  <export target="chetocheto.json" format="json"/>
 </editorsettings>
 <tileset firstgid="1" name="Pixel 16 v2 village free" tilewidth="16" tileheight="16" tilecount="289" columns="17">
  <image source="../Pixel 16 v2 village free/Pixel 16 v2 village free.png" width="282" height="276"/>
 </tileset>
 <layer id="1" name="Слой тайлов 1" width="60" height="34">
  <data encoding="csv">
   <chunk x="-64" y="-48" width="16" height="16">
27,27,27,27,27,27,27,27,27,27,27,27,27,27,27,27,
27,27,27,27,27,27,27,27,27,27,27,27,27,27,27,27,
27,27,27,27,27,27,27,27,27,27,27,27,27,27,27,27,
27,27,27,27,27,27,27,27,27,27,27,27,27,27,27,27,
27,27,27,27,27,27,27,27,27,27,27,27,27,27,27,27,
27,27,27,27,27,27,27,27,27,27,27,27,27,27,27,27,
27,27,27,27,27,27,27,27,27,27,27,27,27,27,27,27,
27,27,27,27,27,27,27,27,27,27,27,27,27,27,27,27,
27,27,27,27,27,27,27,27,27,27,27,27,27,27,27,27,
27,27,27,27,27,27,27,27,27,27,27,27,27,27,27,27,
27,27,27,27,27,27,27,27,27,27,27,27,27,27,27,27,
27,27,27,27,27,27,27,27,27,27,27,27,27,27,27,27,
27,27,27,27,27,27,27,27,27,27,27,27,27,27,27,27,
27,27,27,27,27,27,27,27,27,27,27,27,27,27,27,27,
27,27,27,27,27,27,27,27,27,27,27,27,27,27,27,27,
27,27,27,27,27,27,27,27,27,27,27,27,27,27,27,27
</chunk>
   <chunk x="-48" y="-48" width="16" height="16">
27,27,27,27,0,27,27,27,27,27,27,27,27,27,27,27,
27,27,27,27,0,27,27,27,27,27,27,27,27,27,27,27,
27,27,27,27,0,27,27,27,27,27,27,27,27,27,27,27,
27,27,27,27,0,27,27,27,27,27,27,27,27,27,27,27,
27,27,27,27,0,27,27,27,27,27,27,27,27,27,27,27,
27,27,27,27,0,27,27,27,27,27,27,27,27,27,27,27,
27,27,27,27,0,27,27,27,27,27,27,27,27,27,27,27,
27,27,27,27,0,27,27,27,27,27,27,27,27,27,27,27,
27,27,27,27,0,27,27,27,27,27,27,27,27,27,27,27,
27,27,27,27,0,27,27,27,27,27,27,27,27,27,27,27,
27,27,27,27,0,27,27,27,27,27,27,27,27,27,27,27,
27,27,27,27,0,27,27,27,27,27,27,27,27,27,27,27,
27,27,27,27,0,27,27,27,27,27,27,27,27,27,27,27,
27,27,27,27,0,27,27,27,27,27,27,27,27,27,27,27,
27,27,27,27,0,27,27,27,27,27,27,27,27,27,27,27,
27,27,27,27,0,27,27,27,27,27,27,27,27,27,27,27
</chunk>
   <chunk x="-32" y="-48" width="16" height="16">
27,27,27,27,27,27,27,27,27,27,27,27,27,27,27,0,
27,27,27,27,27,27,27,27,27,27,27,27,27,27,27,0,
27,27,27,27,27,27,27,27,27,27,27,27,27,27,27,0,
27,27,27,27,27,27,27,27,27,27,27,27,27,27,27,0,
27,27,27,27,27,27,27,27,27,27,27,27,27,27,27,0,
27,27,27,27,27,27,27,27,27,27,27,27,27,27,27,0,
27,27,27,27,27,27,27,27,27,27,27,27,27,27,27,0,
27,27,27,27,27,27,27,27,27,27,27,27,27,27,27,0,
27,27,27,27,27,27,27,27,27,27,27,27,27,27,27,0,
27,27,27,27,27,27,27,27,27,27,27,27,27,27,27,0,
27,27,27,27,27,27,27,27,27,27,27,27,27,27,27,0,
27,27,27,27,27,27,27,27,27,27,27,27,27,27,27,0,
27,27,27,27,27,27,27,27,27,27,27,27,27,27,27,0,
27,27,27,27,27,27,27,27,27,27,27,27,27,27,27,0,
27,27,27,27,27,27,27,27,27,27,27,27,27,27,27,0,
27,27,27,27,27,27,27,27,27,27,27,27,27,27,27,0
</chunk>
   <chunk x="-16" y="-48" width="16" height="16">
27,27,27,27,27,27,27,27,27,27,27,27,27,27,27,27,
27,27,27,27,27,27,27,27,27,27,27,27,27,27,27,27,
27,27,27,27,27,27,27,27,27,27,27,27,27,27,27,27,
27,27,27,27,27,27,27,27,27,27,27,27,27,27,27,27,
27,27,27,27,27,27,27,27,27,27,27,27,27,27,27,27,
27,27,27,27,27,27,27,27,27,27,27,27,27,27,27,27,
27,27,27,27,27,27,27,27,27,27,27,27,27,27,27,27,
27,27,27,27,27,27,27,27,27,27,27,27,27,27,27,27,
27,27,27,27,27,27,27,27,27,27,27,27,27,27,27,27,
27,27,27,27,27,27,27,27,27,27,27,27,27,27,27,27,
27,27,27,27,27,27,27,27,27,27,27,27,27,27,27,27,
27,27,27,27,27,27,27,27,27,27,27,27,27,27,27,27,
27,27,27,27,27,27,27,27,27,27,27,27,27,27,27,27,
27,27,27,27,27,27,27,27,27,27,27,27,27,27,27,27,
27,27,27,27,27,27,27,27,27,27,27,27,27,27,27,27,
27,27,27,27,27,27,27,27,27,27,27,27,27,27,27,27
</chunk>
   <chunk x="0" y="-48" width="16" height="16">
27,27,27,27,27,27,27,27,27,27,27,27,27,27,27,27,
27,27,27,27,27,27,27,27,27,27,27,27,27,27,27,27,
27,27,27,27,27,27,27,27,27,27,27,27,27,27,27,27,
27,27,27,27,27,27,27,27,27,27,27,27,27,27,27,27,
27,27,27,27,27,27,27,27,27,27,27,27,27,27,27,27,
27,27,27,27,27,27,27,27,27,27,27,27,27,27,27,27,
27,27,27,27,27,27,27,27,27,27,27,27,27,27,27,27,
27,27,27,27,27,27,27,27,27,27,27,27,27,27,27,27,
27,27,27,27,27,27,27,27,27,27,27,27,27,27,27,27,
27,27,27,27,27,27,27,27,27,27,27,27,27,27,27,27,
27,27,27,27,27,27,27,27,27,27,27,27,27,27,27,27,
27,27,27,27,27,27,27,27,27,27,27,27,27,27,27,27,
27,27,27,27,27,27,27,27,27,27,27,27,27,27,27,27,
27,27,27,27,27,27,27,27,27,27,27,27,27,27,27,27,
27,27,27,27,27,27,27,27,27,27,27,27,27,27,27,27,
27,27,27,27,27,27,27,27,27,27,27,27,27,27,27,27
</chunk>
   <chunk x="-64" y="-32" width="16" height="16">
27,27,27,27,27,27,27,27,27,27,27,27,27,27,27,27,
27,27,27,27,27,27,27,27,27,27,27,27,27,27,27,27,
27,27,27,27,27,27,27,27,27,27,27,27,27,27,27,27,
27,27,27,27,27,27,27,27,27,27,27,27,27,27,27,27,
27,27,27,27,27,27,27,27,27,27,27,27,27,27,27,27,
27,27,27,27,27,27,27,27,27,27,27,27,27,27,27,27,
27,27,27,27,27,27,27,27,27,27,27,27,27,27,27,27,
27,27,27,27,27,27,27,27,27,27,27,27,27,27,27,27,
27,27,27,27,27,27,27,27,27,27,27,27,27,27,27,27,
27,27,27,27,27,27,27,27,27,27,27,27,27,27,27,27,
27,27,27,27,27,27,27,27,27,27,27,27,27,27,27,27,
27,27,27,27,27,27,27,27,27,27,27,27,27,27,27,27,
27,27,27,27,27,27,27,27,27,27,27,27,27,27,27,27,
27,27,27,27,27,27,27,27,27,27,27,27,27,27,27,27,
27,27,27,27,27,27,27,27,27,27,27,27,27,27,27,27,
27,27,27,27,27,27,27,27,27,27,27,27,27,27,27,27
</chunk>
   <chunk x="-48" y="-32" width="16" height="16">
27,27,27,27,0,27,27,27,27,27,27,27,27,27,27,27,
27,27,27,27,0,0,0,0,0,0,0,0,0,0,0,0,
27,27,27,27,0,55,55,55,55,55,55,55,55,55,55,55,
27,27,27,27,0,55,55,55,55,55,55,55,55,55,55,55,
27,27,27,0,0,55,55,55,55,55,55,55,55,55,55,55,
27,27,27,0,0,55,55,55,55,55,55,55,55,55,55,55,
27,27,27,0,0,55,55,55,55,55,55,55,55,55,55,55,
27,27,27,0,0,55,55,55,55,55,55,55,55,55,55,55,
27,27,27,0,0,55,55,55,55,55,55,55,55,55,55,55,
27,27,27,0,0,55,55,55,55,55,55,55,55,55,55,55,
27,27,27,0,0,55,55,55,55,55,55,55,55,55,55,55,
27,27,27,0,0,55,55,55,55,55,55,55,55,55,55,55,
27,27,27,0,0,55,55,55,55,55,55,55,55,55,55,55,
27,27,27,0,0,55,55,55,55,55,55,55,55,55,55,55,
27,27,27,0,0,55,55,55,55,55,55,55,55,55,55,55,
27,27,27,0,0,55,55,55,55,55,55,55,55,55,55,55
</chunk>
   <chunk x="-32" y="-32" width="16" height="16">
27,27,27,27,27,27,27,27,27,27,27,27,27,27,0,0,
0,0,0,0,0,0,0,0,0,0,0,0,0,0,0,0,
55,55,55,55,55,55,55,55,55,55,55,55,55,55,55,0,
55,55,55,55,55,55,55,55,55,55,55,55,55,55,55,0,
55,55,55,55,55,55,55,55,55,55,55,55,55,55,55,0,
55,55,55,55,55,55,55,55,55,55,55,55,55,55,55,0,
55,55,55,55,55,55,55,55,55,55,55,55,55,55,55,0,
55,55,55,55,55,55,55,55,55,55,55,55,55,55,55,0,
55,55,55,55,55,55,55,55,55,55,55,55,55,55,55,0,
55,55,55,55,55,55,55,55,55,55,55,55,55,55,55,0,
55,55,55,55,55,55,55,55,55,55,55,55,55,55,55,0,
55,55,55,55,55,55,55,55,55,55,55,55,55,55,55,0,
55,55,55,55,55,55,55,55,55,55,55,55,55,55,55,0,
55,55,55,55,55,55,55,55,55,55,55,55,55,55,55,0,
55,55,55,55,55,55,55,55,55,55,55,55,55,55,55,0,
55,55,55,55,55,55,55,55,55,55,55,55,55,55,55,0
</chunk>
   <chunk x="-16" y="-32" width="16" height="16">
27,27,27,27,27,27,27,27,27,27,27,27,27,27,27,27,
27,27,27,27,27,27,27,27,27,27,27,27,27,27,27,27,
27,27,27,27,27,27,27,27,27,27,27,27,27,27,27,27,
27,27,27,27,27,27,27,27,27,27,27,27,27,27,27,27,
27,27,27,27,27,27,27,27,27,27,27,27,27,27,27,27,
27,27,27,27,27,27,27,27,27,27,27,27,27,27,27,27,
27,27,27,27,27,27,27,27,27,27,27,27,27,27,27,27,
27,27,27,27,27,27,27,27,27,27,27,27,27,27,27,27,
27,27,27,27,27,27,27,27,27,27,27,27,27,27,27,27,
27,27,27,27,27,27,27,27,27,27,27,27,27,27,27,27,
27,27,27,27,27,27,27,27,27,27,27,27,27,27,27,27,
27,27,27,27,27,27,27,27,27,27,27,27,27,27,27,27,
27,27,27,27,27,27,27,27,27,27,27,27,27,27,27,27,
27,27,27,27,27,27,27,27,27,27,27,27,27,27,27,27,
27,27,27,27,27,27,27,27,27,27,27,27,27,27,27,27,
27,27,27,27,27,27,27,27,27,27,27,27,27,27,27,27
</chunk>
   <chunk x="0" y="-32" width="16" height="16">
27,27,27,27,27,27,27,27,27,27,27,27,27,27,27,27,
27,27,27,27,27,27,27,27,27,27,27,27,27,27,27,27,
27,27,27,27,27,27,27,27,27,27,27,27,27,27,27,27,
27,27,27,27,27,27,27,27,27,27,27,27,27,27,27,27,
27,27,27,27,27,27,27,27,27,27,27,27,27,27,27,27,
27,27,27,27,27,27,27,27,27,27,27,27,27,27,27,27,
27,27,27,27,27,27,27,27,27,27,27,27,27,27,27,27,
27,27,27,27,27,27,27,27,27,27,27,27,27,27,27,27,
27,27,27,27,27,27,27,27,27,27,27,27,27,27,27,27,
27,27,27,27,27,27,27,27,27,27,27,27,27,27,27,27,
27,27,27,27,27,27,27,27,27,27,27,27,27,27,27,27,
27,27,27,27,27,27,27,27,27,27,27,27,27,27,27,27,
27,27,27,27,27,27,27,27,27,27,27,27,27,27,27,27,
27,27,27,27,27,27,27,27,27,27,27,27,27,27,27,27,
27,27,27,27,27,27,27,27,27,27,27,27,27,27,27,27,
27,27,27,27,27,27,27,27,27,27,27,27,27,27,27,27
</chunk>
   <chunk x="-64" y="-16" width="16" height="16">
27,27,27,27,27,27,27,27,27,27,27,27,27,27,27,27,
27,27,27,27,27,27,27,27,27,27,27,27,27,27,27,27,
27,27,27,27,27,27,27,27,27,27,27,27,27,27,27,27,
27,27,27,27,27,27,27,27,27,27,27,27,27,27,27,27,
27,27,27,27,27,27,27,27,27,27,27,27,27,27,27,27,
27,27,27,27,27,27,27,27,27,27,27,27,27,27,27,27,
27,27,27,27,27,27,27,27,27,27,27,27,27,27,27,27,
27,27,27,27,27,27,27,27,27,27,27,27,27,27,27,27,
27,27,27,27,27,27,27,27,27,27,27,27,27,27,27,27,
27,27,27,27,27,27,27,27,27,27,27,27,27,27,27,27,
27,27,27,27,27,27,27,27,27,27,27,27,27,27,27,27,
27,27,27,27,27,27,27,27,27,27,27,27,27,27,27,27,
27,27,27,27,27,27,27,27,27,27,27,27,27,27,27,27,
27,27,27,27,27,27,27,27,27,27,27,27,27,27,27,27,
27,27,27,27,27,27,27,27,27,27,27,27,27,27,27,27,
27,27,27,27,27,27,27,27,27,27,27,27,27,27,27,27
</chunk>
   <chunk x="-48" y="-16" width="16" height="16">
27,27,27,0,0,55,55,55,55,55,55,55,55,55,55,55,
27,27,27,0,0,55,55,55,55,55,55,55,55,55,55,55,
27,27,27,0,0,55,55,55,55,55,55,55,55,55,55,55,
27,27,27,0,0,55,55,55,55,55,55,55,55,55,55,55,
27,27,27,0,0,55,55,55,55,55,55,55,55,55,55,55,
27,27,27,0,0,0,0,0,0,0,0,0,0,0,0,0,
27,27,27,0,0,27,27,27,27,27,27,27,27,27,27,27,
27,27,27,0,0,27,27,27,27,27,27,27,27,27,27,27,
27,27,27,0,0,27,27,27,27,27,27,27,27,27,27,27,
27,27,27,0,0,27,27,27,27,27,27,27,27,27,27,27,
27,27,27,0,0,27,27,27,27,27,27,27,27,27,27,27,
27,27,27,0,0,27,27,27,27,27,27,27,27,27,27,27,
27,27,0,0,0,27,27,27,27,27,27,27,27,27,27,27,
27,27,0,27,0,27,27,27,27,27,27,27,27,27,27,27,
27,27,0,27,0,27,27,27,27,27,27,27,27,27,27,27,
27,27,0,27,0,27,27,27,27,27,27,27,27,27,27,27
</chunk>
   <chunk x="-32" y="-16" width="16" height="16">
55,55,55,55,55,55,55,55,55,55,55,55,55,55,55,0,
55,55,55,55,55,55,55,55,55,55,55,55,55,55,55,0,
55,55,55,55,55,55,55,55,55,55,55,55,55,55,55,0,
55,55,55,55,55,55,55,55,55,55,55,55,55,55,55,0,
55,55,55,55,55,55,55,55,55,55,55,55,55,55,55,0,
0,0,0,0,0,0,0,0,0,0,0,0,0,0,0,0,
27,27,27,27,27,27,27,27,27,27,27,0,0,0,0,0,
27,27,27,27,27,27,27,27,27,27,27,27,27,27,27,0,
27,27,27,27,27,27,27,27,27,27,27,27,27,27,27,0,
27,27,27,27,27,27,27,27,27,27,27,27,27,27,27,0,
27,27,27,27,27,27,27,27,27,27,27,27,27,27,27,0,
27,27,27,27,27,27,27,27,27,27,27,27,27,27,27,0,
27,27,27,27,27,27,27,27,27,27,27,27,27,27,27,0,
27,27,27,27,27,27,27,27,27,27,27,27,27,27,27,0,
27,27,27,27,27,27,27,27,27,27,27,27,27,27,27,0,
27,27,27,27,27,27,27,27,27,27,27,27,27,27,27,0
</chunk>
   <chunk x="-16" y="-16" width="16" height="16">
27,27,27,27,27,27,27,27,27,27,27,27,27,27,27,27,
27,27,27,27,27,27,27,27,27,27,27,27,27,27,27,27,
27,27,27,27,27,27,27,27,27,27,27,27,27,27,27,27,
27,27,27,27,27,27,27,27,27,27,27,27,27,27,27,27,
27,27,27,27,27,27,27,27,27,27,27,27,27,27,27,27,
27,27,27,27,27,27,27,27,27,27,27,27,27,27,27,27,
27,27,27,27,27,27,27,27,27,27,27,27,27,27,27,27,
27,27,27,27,27,27,27,27,27,27,27,27,27,27,27,27,
27,27,27,27,27,27,27,27,27,27,27,27,27,27,27,27,
27,27,27,27,27,27,27,27,27,27,27,27,27,27,27,27,
27,27,27,27,27,27,27,27,27,27,27,27,27,27,27,27,
27,27,27,27,27,27,27,27,27,27,27,27,27,27,27,27,
27,27,27,27,27,27,27,27,27,27,27,27,27,27,27,27,
27,27,27,27,27,27,27,27,27,27,27,27,27,27,27,27,
27,27,27,27,27,27,27,27,27,27,27,27,27,27,27,27,
27,27,27,27,27,27,27,27,27,27,27,27,27,27,27,27
</chunk>
   <chunk x="0" y="-16" width="16" height="16">
27,27,27,27,27,27,27,27,27,27,27,27,27,27,27,27,
27,27,27,27,27,27,27,27,27,27,27,27,27,27,27,27,
27,27,27,27,27,27,27,27,27,27,27,27,27,27,27,27,
27,27,27,27,27,27,27,27,27,27,27,27,27,27,27,27,
27,27,27,27,27,27,27,27,27,27,27,27,27,27,27,27,
27,27,27,27,27,27,27,27,27,27,27,27,27,27,27,27,
27,27,27,27,27,27,27,27,27,27,27,27,27,27,27,27,
27,27,27,27,27,27,27,27,27,27,27,27,27,27,27,27,
27,27,27,27,27,27,27,27,27,27,27,27,27,27,27,27,
27,27,27,27,27,27,27,27,27,27,27,27,27,27,27,27,
27,27,27,27,27,27,27,27,27,27,27,27,27,27,27,27,
27,27,27,27,27,27,27,27,27,27,27,27,27,27,27,27,
27,27,27,27,27,27,27,27,27,27,27,27,27,27,27,27,
27,27,27,27,27,27,27,27,27,27,27,27,27,27,27,27,
27,27,27,27,27,27,27,27,27,27,27,27,27,27,27,27,
27,27,27,27,27,27,27,27,27,27,27,27,27,27,27,27
</chunk>
   <chunk x="-64" y="0" width="16" height="16">
27,27,27,27,27,27,27,27,27,27,27,27,27,27,27,27,
27,27,27,27,27,27,27,27,27,27,27,27,27,27,27,27,
27,27,27,27,27,27,27,27,27,27,27,27,27,27,27,27,
27,27,27,27,27,27,27,27,27,27,27,27,27,27,27,27,
27,27,27,27,27,27,27,27,27,27,27,27,27,27,27,27,
27,27,27,27,27,27,27,27,27,27,27,27,27,27,27,27,
27,27,27,27,27,27,27,27,27,27,27,27,27,27,27,27,
27,27,27,27,27,27,27,27,27,27,27,27,27,27,27,27,
27,27,27,27,27,27,27,27,27,27,27,27,27,27,27,27,
27,27,27,27,27,27,27,27,27,27,27,27,27,27,27,27,
27,27,27,27,27,27,27,27,27,27,27,27,27,27,27,27,
27,27,27,27,27,27,27,27,27,27,27,27,27,27,27,27,
27,27,27,27,27,27,27,27,27,27,27,27,27,27,27,27,
27,27,27,27,27,27,27,27,27,27,27,27,27,27,27,27,
27,27,27,27,27,27,27,27,27,27,27,27,27,27,27,27,
27,27,27,27,27,27,27,27,27,27,27,27,27,27,27,27
</chunk>
   <chunk x="-48" y="0" width="16" height="16">
27,0,0,27,0,27,27,27,27,27,27,27,27,27,27,27,
27,0,27,27,0,27,27,27,27,27,27,27,27,27,27,27,
27,0,27,27,0,27,27,27,27,27,27,27,27,27,27,27,
27,0,27,27,0,27,27,27,27,27,27,27,27,27,27,27,
27,0,27,27,0,27,27,27,27,27,27,27,27,27,27,27,
27,0,27,27,0,27,27,27,27,27,27,27,27,27,27,27,
27,0,27,27,0,27,27,27,27,27,27,27,27,27,27,27,
27,0,27,27,0,27,27,27,27,27,27,27,27,27,27,27,
27,0,27,27,0,27,27,27,27,27,27,27,27,27,27,27,
27,0,27,27,0,27,27,27,27,27,27,27,27,27,27,27,
27,0,27,27,0,27,27,27,27,27,27,27,27,27,27,27,
27,0,27,27,0,27,27,27,27,27,27,27,27,27,27,27,
27,0,27,27,0,27,27,27,27,27,27,27,27,27,27,27,
27,27,27,27,0,27,27,27,27,27,27,27,27,27,27,27,
27,27,27,27,0,27,27,27,27,27,27,27,27,27,27,27,
27,27,27,27,0,27,27,27,27,27,27,27,27,27,27,27
</chunk>
   <chunk x="-32" y="0" width="16" height="16">
27,27,27,27,27,27,27,27,27,27,27,27,27,27,27,0,
27,27,27,27,27,27,27,27,27,27,27,27,27,27,27,0,
27,27,27,27,27,27,27,27,27,27,27,27,27,27,27,0,
27,27,27,27,27,27,27,27,27,27,27,27,27,27,27,0,
27,27,27,27,27,27,27,27,27,27,27,27,27,27,27,0,
27,27,27,27,27,27,27,27,27,27,27,27,27,27,27,0,
27,27,27,27,27,27,27,27,27,27,27,27,27,27,27,0,
27,27,27,27,27,27,27,27,27,27,27,27,27,27,27,0,
27,27,27,27,27,27,27,27,27,27,27,27,27,27,27,0,
27,27,27,27,27,27,27,27,27,27,27,27,27,27,27,0,
27,27,27,27,27,27,27,27,27,27,27,27,27,27,27,0,
27,27,27,27,27,27,27,27,27,27,27,27,27,27,27,0,
27,27,27,27,27,27,27,27,27,27,27,27,27,27,27,0,
27,27,27,27,27,27,27,27,27,27,27,27,27,27,27,0,
27,27,27,27,27,27,27,27,27,27,27,27,27,27,27,0,
27,27,27,27,27,27,27,27,27,27,27,27,27,27,27,0
</chunk>
   <chunk x="-16" y="0" width="16" height="16">
27,27,27,27,27,27,27,27,27,27,27,27,27,27,27,27,
27,27,27,27,27,27,27,27,27,27,27,27,27,27,27,27,
27,27,27,27,27,27,27,27,27,27,27,27,27,27,27,27,
27,27,27,27,27,27,27,27,27,27,27,27,27,27,27,27,
27,27,27,27,27,27,27,27,27,27,27,27,27,27,27,27,
27,27,27,27,27,27,27,27,27,27,27,27,27,27,27,27,
27,27,27,27,27,27,27,27,27,27,27,27,27,27,27,27,
27,27,27,27,27,27,27,27,27,27,27,27,27,27,27,27,
27,27,27,27,27,27,27,27,27,27,27,27,27,27,27,27,
27,27,27,27,27,27,27,27,27,27,27,27,27,27,27,27,
27,27,27,27,27,27,27,27,27,27,27,27,27,27,27,27,
27,27,27,27,27,27,27,27,27,27,27,27,27,27,27,27,
27,27,27,27,27,27,27,27,27,27,27,27,27,27,27,27,
27,27,27,27,27,27,27,27,27,27,27,27,27,27,27,27,
27,27,27,27,27,27,27,27,27,27,27,27,27,27,27,27,
27,27,27,27,27,27,27,27,27,27,27,27,27,27,27,27
</chunk>
   <chunk x="0" y="0" width="16" height="16">
27,27,27,27,27,27,27,27,27,27,27,27,27,27,27,27,
27,27,27,27,27,27,27,27,27,27,27,27,27,27,27,27,
27,27,27,27,27,27,27,27,27,27,27,27,27,27,27,27,
27,27,27,27,27,27,27,27,27,27,27,27,27,27,27,27,
27,27,27,27,27,27,27,27,27,27,27,27,27,27,27,27,
27,27,27,27,27,27,27,27,27,27,27,27,27,27,27,27,
27,27,27,27,27,27,27,27,27,27,27,27,27,27,27,27,
27,27,27,27,27,27,27,27,27,27,27,27,27,27,27,27,
27,27,27,27,27,27,27,27,27,27,27,27,27,27,27,27,
27,27,27,27,27,27,27,27,27,27,27,27,27,27,27,27,
27,27,27,27,27,27,27,27,27,27,27,27,27,27,27,27,
27,27,27,27,27,27,27,27,27,27,27,27,27,27,27,27,
27,27,27,27,27,27,27,27,27,27,27,27,27,27,27,27,
27,27,27,27,27,27,27,27,27,27,27,27,27,27,27,27,
27,27,27,27,27,27,27,27,27,27,27,27,27,27,27,27,
27,27,27,27,27,27,27,27,27,27,27,27,27,27,27,27
</chunk>
  </data>
 </layer>
 <layer id="2" name="Слой тайлов 2" width="60" height="34">
  <data encoding="csv">
   <chunk x="-48" y="-64" width="16" height="16">
0,0,0,0,0,0,0,0,0,0,0,0,0,0,0,0,
0,0,0,0,0,0,0,0,0,0,0,0,0,0,0,0,
0,0,0,0,0,0,0,0,0,0,0,0,0,0,0,0,
0,0,0,0,0,0,11,0,0,0,0,0,0,0,0,0,
0,0,0,0,0,0,11,0,0,0,0,0,0,0,0,0,
0,0,0,0,0,0,11,0,0,0,0,0,0,0,0,0,
0,0,0,0,0,0,11,0,0,0,0,0,0,0,0,0,
0,0,0,0,0,0,11,0,0,0,0,0,0,0,0,0,
0,0,0,0,0,0,11,0,0,0,0,0,0,0,0,0,
0,0,0,0,0,0,0,0,0,0,0,0,0,0,0,0,
0,0,0,0,0,11,0,0,0,0,0,0,0,0,0,0,
0,0,0,0,0,11,0,0,0,0,0,0,0,0,0,0,
0,0,0,0,0,11,0,0,0,0,0,0,0,0,0,0,
0,0,0,0,0,11,0,0,0,0,0,0,0,0,0,0,
0,0,0,0,0,11,0,0,0,0,0,0,0,0,0,0,
0,0,0,0,0,11,0,0,0,0,0,0,0,0,0,0
</chunk>
   <chunk x="-48" y="-48" width="16" height="16">
0,0,0,0,0,0,11,0,0,0,0,0,0,0,0,0,
0,0,0,0,0,0,11,0,0,0,0,0,0,0,0,0,
0,0,0,0,0,0,0,0,0,0,0,0,0,0,0,0,
0,0,0,0,0,0,0,0,0,0,0,0,0,0,0,0,
0,0,0,0,0,0,0,0,0,0,0,0,0,0,0,0,
0,0,0,0,0,0,11,0,0,0,0,0,0,0,0,0,
0,0,0,0,0,0,0,0,0,0,0,0,0,0,0,0,
0,0,0,0,0,0,0,0,0,0,0,0,0,0,0,0,
0,0,0,0,0,0,0,0,0,0,0,0,0,0,0,0,
0,0,0,0,0,0,0,0,0,0,0,0,0,0,0,0,
0,0,0,0,0,0,0,0,0,0,0,0,0,0,0,0,
0,0,0,0,0,0,0,0,0,0,0,0,0,0,0,0,
0,0,0,0,0,0,0,0,0,0,0,0,0,0,0,0,
0,0,0,0,0,0,0,0,0,0,0,0,0,0,0,0,
0,0,0,0,0,0,0,0,0,0,0,0,0,0,0,0,
0,0,0,0,0,0,0,0,0,0,0,0,0,0,0,0
</chunk>
   <chunk x="-48" y="-32" width="16" height="16">
0,0,0,0,0,0,0,0,0,0,0,0,0,0,0,0,
0,0,0,0,0,0,0,0,0,0,0,0,0,0,0,0,
0,0,0,0,0,0,11,0,0,0,0,0,0,0,0,0,
0,0,0,0,0,0,0,0,0,0,0,0,0,0,0,0,
0,0,0,0,0,0,0,0,0,0,0,0,0,0,0,0,
0,0,0,0,0,0,0,0,0,0,0,0,0,124,125,126,
0,0,0,0,0,0,0,0,0,0,0,0,0,141,142,143,
0,0,0,0,0,0,0,0,0,0,0,0,0,158,159,160,
0,0,0,0,0,0,0,0,0,0,0,0,0,175,176,177,
0,0,0,0,0,0,0,0,0,0,0,0,84,192,193,194,
0,0,0,0,0,0,0,0,0,45,46,82,84,209,210,211,
0,0,0,0,0,0,0,0,0,62,63,31,32,226,227,228,
0,0,0,0,0,0,0,0,0,79,80,48,49,26,26,26,
0,0,0,0,0,0,0,26,0,0,0,26,0,26,26,26,
0,0,0,0,0,26,0,0,0,0,0,0,0,26,0,0,
0,0,0,0,0,0,0,0,0,0,0,0,0,0,0,0
</chunk>
   <chunk x="-32" y="-32" width="16" height="16">
0,0,0,0,0,0,0,0,0,0,0,0,0,0,0,0,
0,0,0,0,0,0,0,0,0,0,0,0,0,0,0,0,
0,0,0,0,0,0,0,0,0,0,0,0,0,0,0,0,
0,0,0,0,0,0,0,0,0,0,0,0,0,0,0,0,
0,0,0,0,0,0,0,0,0,0,0,0,0,0,0,0,
127,128,0,0,0,0,0,0,0,0,0,0,0,0,0,0,
144,145,0,0,0,0,0,0,0,0,0,0,0,0,0,0,
161,162,163,164,165,166,167,168,169,170,0,0,0,0,0,0,
178,179,180,181,182,183,184,185,186,187,0,0,0,0,0,0,
195,196,197,198,199,200,201,202,203,204,0,0,0,0,0,0,
212,213,214,215,216,217,218,219,220,221,2147483694,2147483693,0,0,0,0,
229,230,231,232,233,234,235,236,237,31,32,2147483710,0,0,0,0,
26,0,248,25,25,251,252,253,254,48,49,2147483727,0,0,0,0,
25,0,0,25,0,0,0,0,0,25,0,0,0,0,0,0,
0,25,0,0,25,0,25,25,25,25,0,0,0,0,0,0,
0,0,25,0,25,25,25,0,0,0,0,0,0,0,0,0
</chunk>
  </data>
 </layer>
</map>
